svgs/solid/oven.svg

<svg xmlns="http://www.w3.org/2000/svg" viewBox="0 0 448 512"><!--! Font Awesome Pro 6.1.2 by @fontawesome - https://fontawesome.com License - https://fontawesome.com/license (Commercial License) Copyright 2022 Fonticons, Inc. --><path d="M0 480c0 17.62 14.38 32 32 32h384c17.62 0 32-14.38 32-32V192H0V480zM64 256h320v192H64V256zM384 0H64C28.63 0 0 28.62 0 64v96h448V64C448 28.62 419.4 0 384 0zM80 104c-13.25 0-24-10.75-24-24S66.75 56 80 56S104 66.75 104 80S93.25 104 80 104zM176 104c-13.25 0-24-10.75-24-24S162.8 56 176 56S200 66.75 200 80S189.3 104 176 104zM272 104c-13.25 0-24-10.75-24-24s10.75-24 24-24s24 10.75 24 24S285.3 104 272 104zM368 104c-13.25 0-24-10.75-24-24s10.75-24 24-24s24 10.75 24 24S381.3 104 368 104zM336 288h-224C103.2 288 96 295.2 96 304S103.2 320 112 320h224c8.838 0 16-7.164 16-16S344.8 288 336 288z"/></svg>

<svg xmlns="http://www.w3.org/2000/svg" viewBox="0 0 448 512"><!--! Font Awesome Pro 6.2.0 by @fontawesome - https://fontawesome.com License - https://fontawesome.com/license (Commercial License) Copyright 2022 Fonticons, Inc. --><path d="M0 64v96H448V64c0-35.3-28.7-64-64-64H64C28.7 0 0 28.7 0 64zM104 80c0 13.3-10.7 24-24 24s-24-10.7-24-24s10.7-24 24-24s24 10.7 24 24zm72 24c-13.3 0-24-10.7-24-24s10.7-24 24-24s24 10.7 24 24s-10.7 24-24 24zM296 80c0 13.3-10.7 24-24 24s-24-10.7-24-24s10.7-24 24-24s24 10.7 24 24zm72 24c-13.3 0-24-10.7-24-24s10.7-24 24-24s24 10.7 24 24s-10.7 24-24 24zm16 152V448H64l0-192H384zM64 192H0v64V448c0 35.3 28.7 64 64 64H384c35.3 0 64-28.7 64-64V256 192H384 64zm48 96c-8.8 0-16 7.2-16 16s7.2 16 16 16H336c8.8 0 16-7.2 16-16s-7.2-16-16-16H112z"/></svg>
